icons/mobile/24/svg/lightning-filled-24.svg

<svg width="24" height="24" viewBox="0 0 24 24" fill="none" xmlns="http://www.w3.org/2000/svg">
<path d="M9.16605 22H8.73305C8.12405 22 7.65705 21.461 7.74305 20.859L8.83905 13.19H5.75205C4.53605 13.19 3.69005 11.98 4.10905 10.838L6.92805 3.149C7.18105 2.458 7.83705 2 8.57105 2H13.219C14.457 2 15.304 3.25 14.844 4.4L13.287 8.293H18.788C20.336 8.293 21.122 10.155 20.042 11.264L9.88205 21.698C9.69405 21.891 9.43605 22 9.16605 22Z" fill="black"/>
</svg>

<!-- This Source Code Form is subject to the terms of the Mozilla Public
   - License, v. 2.0. If a copy of the MPL was not distributed with this
   - file, You can obtain one at http://mozilla.org/MPL/2.0/. -->
<svg xmlns="http://www.w3.org/2000/svg" width="24" height="24" fill="none" viewBox="0 0 24 24">
    <path fill="#000" d="M9.166 22h-.433a1 1 0 0 1-.99-1.141L8.84 13.19H5.752a1.75 1.75 0 0 1-1.643-2.352l2.819-7.689A1.75 1.75 0 0 1 8.571 2h4.648a1.75 1.75 0 0 1 1.625 2.4l-1.557 3.893h5.501c1.548 0 2.334 1.862 1.254 2.971L9.882 21.698a1 1 0 0 1-.716.302" />
</svg>
